X: 48
T: Le village d'en bas
C: Grégory Jolivet
M: 4/4
L: 1/8
K: C
|: "C"c3 d e2 dc| "Em"eg e4 dc | "Dm"f3 e c2 de| "G"d3 c B2 G2 |
"C"c3 d e2 dc| "Em"eg e4 dc | "Dm"f3 e c2 de| "G" d8 :|
|: "Am"A2 cA e3 c| "F"fe c4 g2 | "G" d3 c Bc d2-|dedc dcBc |
"Am"A2 cA e3 c| "F"fe c4 g2 | "G"d3 c Bc d2|d8 :|

